src/assets/img/nftDashboard/shareNft/facebook-f.svg

<svg fill="none" height="17" viewBox="0 0 9 17" width="9" xmlns="http://www.w3.org/2000/svg"><path d="m7.57522 9.08606.40934-2.88954h-2.60219v-1.88449c0-.81661.35085-1.57041 1.52038-1.57041h1.19876v-2.481236s-1.08181-.2198567-2.10514-.2198567c-2.13438 0-3.53781 1.4133627-3.53781 3.9260127v2.22998h-2.3975248v2.88954h2.3975248v7.03544h2.92381v-7.03544z" fill="#fff"/></svg>

<svg width="9" height="17" viewBox="0 0 9 17" fill="none" xmlns="http://www.w3.org/2000/svg">
<path d="M7.57522 9.08606L7.98456 6.19652H5.38237V4.31203C5.38237 3.49542 5.73322 2.74162 6.90275 2.74162H8.10151V0.260384C8.10151 0.260384 7.0197 0.0405273 5.99637 0.0405273C3.86199 0.0405273 2.45856 1.45389 2.45856 3.96654V6.19652H0.0610352V9.08606H2.45856V16.1215H5.38237V9.08606H7.57522Z" fill="white"/>
</svg>
